;FLAVOR:Marlin
;TIME:2135
;Filament used: 1.24906m
;Layer height: 0.2
;MINX:78.759
;MINY:73.784
;MINZ:0.2
;MAXX:141.241
;MAXY:143.998
;MAXZ:5.2
;Generated with Cura_SteamEngine 5.0.0
M140 S60
M105
M190 S60
M104 S200
M105
M109 S200
M82 ;absolute extrusion mode
; Ender 3 Custom Start G-code
G92 E0 ; Reset Extruder
G28 ; Home all axes
G1 Z2.0 F3000 ; Move Z Axis up little to prevent scratching of Heat Bed
G1 X0.1 Y20 Z0.3 F5000.0 ; Move to start position
G1 X0.1 Y200.0 Z0.3 F1500.0 E15 ; Draw the first line
G1 X0.4 Y200.0 Z0.3 F5000.0 ; Move to side a little
G1 X0.4 Y20 Z0.3 F1500.0 E30 ; Draw the second line
G92 E0 ; Reset Extruder
G1 Z2.0 F3000 ; Move Z Axis up little to prevent scratching of Heat Bed
G1 X5 Y20 Z0.3 F5000.0 ; Move over to prevent blob squish
G92 E0
G92 E0
G1 F1500 E-6.5
;LAYER_COUNT:26
;LAYER:0
M107
G0 F6000 X82.173 Y77.379 Z0.2
G0 X78.761 Y86.243
;TYPE:SKIRT
G1 F1500 E0
G1 F1200 X78.777 Y85.475 E0.02555
G1 X78.837 Y84.539 E0.05674
G1 X79.011 Y83.44 E0.09375
G1 X79.068 Y83.169 E0.10296
G1 X79.3 Y82.26 E0.13417
G1 X79.608 Y81.375 E0.16533
G1 X79.876 Y80.751 E0.18792
G1 X80.295 Y79.912 E0.21911
G1 X80.865 Y78.993 E0.25508
G1 X80.981 Y78.825 E0.26187
G1 X81.546 Y78.077 E0.29305
G1 X82.173 Y77.379 E0.32426
G1 X82.858 Y76.738 E0.35546
G1 X83.662 Y76.108 E0.38943
G1 X83.966 Y75.892 E0.40183
G1 X84.753 Y75.382 E0.43303
G1 X85.58 Y74.941 E0.4642
G1 X86.442 Y74.571 E0.4954
G1 X87.333 Y74.277 E0.5266
G1 X88.322 Y74.045 E0.56039
G1 X88.687 Y73.977 E0.57274
G1 X89.616 Y73.845 E0.60395
G1 X90.535 Y73.792 E0.63457
G1 X91.162 Y73.784 E0.65542
G1 X128.661 Y73.784 E1.90264
G1 X129.618 Y73.8 E1.93448
G1 X130.555 Y73.857 E1.9657
G1 X131.482 Y73.994 E1.99687
G1 X132.12 Y74.136 E2.01861
G1 X132.38 Y74.202 E2.02753
G1 X133.279 Y74.471 E2.05874
G1 X134.151 Y74.816 E2.08993
G1 X134.991 Y75.234 E2.12114
G1 X136.135 Y75.961 E2.16622
G1 X136.423 Y76.17 E2.17805
G1 X137.158 Y76.753 E2.20926
G1 X137.84 Y77.396 E2.24043
G1 X138.465 Y78.095 E2.27162
G1 X139.029 Y78.845 E2.30283
G1 X139.448 Y79.504 E2.3288
G1 X139.657 Y79.86 E2.34254
G1 X140.097 Y80.688 E2.37372
G1 X140.465 Y81.551 E2.40493
G1 X140.758 Y82.442 E2.43612
G1 X140.923 Y83.106 E2.45888
G1 X140.974 Y83.342 E2.46691
G1 X141.133 Y84.266 E2.49809
G1 X141.22 Y85.44 E2.53725
G1 X141.241 Y86.593 E2.5756
G1 X141.24 Y102.198 E3.09463
G1 X141.23 Y102.921 E3.11868
G1 X141.215 Y103.365 E3.13345
G1 X141.095 Y105.574 E3.20703
G1 X141.024 Y108.064 E3.28988
G1 X141.022 Y110.589 E3.37387
G1 X141.093 Y113.119 E3.45805
G1 X141.175 Y114.529 E3.50502
G1 X141.225 Y115.729 E3.54497
G1 X141.241 Y116.831 E3.58163
G1 X141.24 Y132.397 E4.09935
G1 X141.231 Y133.124 E4.12354
G1 X141.18 Y134.061 E4.15475
G1 X141.048 Y134.989 E4.18592
G1 X140.839 Y135.903 E4.21711
G1 X140.552 Y136.796 E4.2483
G1 X140.19 Y137.662 E4.27952
G1 X139.756 Y138.493 E4.3107
G1 X139.252 Y139.284 E4.3419
G1 X138.683 Y140.029 E4.37308
G1 X138.052 Y140.724 E4.4043
G1 X137.365 Y141.362 E4.43548
G1 X136.626 Y141.939 E4.46667
G1 X135.84 Y142.451 E4.49787
G1 X135.014 Y142.894 E4.52904
G1 X134.152 Y143.266 E4.56027
G1 X133.263 Y143.562 E4.59143
G1 X132.351 Y143.782 E4.62264
G1 X131.424 Y143.923 E4.65382
G1 X130.537 Y143.984 E4.68339
G1 X129.912 Y143.997 E4.70419
G1 X126.774 Y143.997 E4.80856
G1 X126.106 Y143.987 E4.83078
G1 X125.17 Y143.933 E4.86196
G1 X124.566 Y143.855 E4.88222
G1 X123.864 Y143.745 E4.90585
G1 X121.239 Y143.372 E4.99403
G1 X118.782 Y143.094 E5.07628
G1 X116.252 Y142.879 E5.16073
G1 X113.735 Y142.738 E5.24457
G1 X111.215 Y142.667 E5.32842
G1 X108.692 Y142.669 E5.41234
G1 X106.192 Y142.741 E5.49552
G1 X103.69 Y142.882 E5.57887
G1 X101.177 Y143.097 E5.66276
G1 X98.661 Y143.385 E5.74699
G1 X96.122 Y143.746 E5.83229
G1 X95.424 Y143.856 E5.85579
G1 X94.027 Y143.985 E5.90245
G1 X93.398 Y143.998 E5.92338
G1 X90.324 Y143.997 E6.02562
G1 X89.626 Y143.988 E6.04883
G1 X88.69 Y143.936 E6.08001
G1 X87.761 Y143.804 E6.11122
G1 X86.847 Y143.594 E6.14241
G1 X85.954 Y143.307 E6.17361
G1 X85.089 Y142.944 E6.20481
G1 X84.258 Y142.51 E6.23599
G1 X83.467 Y142.006 E6.26719
G1 X82.722 Y141.436 E6.29839
G1 X82.028 Y140.805 E6.32959
G1 X81.391 Y140.118 E6.36075
G1 X80.814 Y139.378 E6.39196
G1 X80.302 Y138.592 E6.42316
G1 X79.859 Y137.765 E6.45436
G1 X79.488 Y136.904 E6.48554
G1 X79.192 Y136.014 E6.51674
G1 X78.973 Y135.102 E6.54793
G1 X78.832 Y134.175 E6.57912
G1 X78.772 Y133.286 E6.60876
G1 X78.759 Y132.656 E6.62972
G1 X78.76 Y116.57 E7.16474
G1 X78.77 Y115.863 E7.18825
G1 X78.785 Y115.426 E7.2028
G1 X78.904 Y113.231 E7.27591
G1 X78.976 Y110.671 E7.36109
G1 X78.976 Y108.182 E7.44388
G1 X78.904 Y105.622 E7.52906
G1 X78.774 Y103.105 E7.61288
G1 X78.759 Y102.442 E7.63494
G1 X78.761 Y86.243 E8.17372
G0 F6000 X79.161 Y86.251
G1 F1200 X79.177 Y85.483 E8.19927
G1 X79.236 Y84.564 E8.2299
G1 X79.402 Y83.522 E8.26499
G1 X79.459 Y83.251 E8.2742
G1 X79.687 Y82.359 E8.30483
G1 X80.156 Y81.104 E8.34939
G1 X80.241 Y80.914 E8.35631
G1 X80.653 Y80.091 E8.38692
G1 X81.194 Y79.22 E8.42102
G1 X81.31 Y79.052 E8.42781
G1 X81.866 Y78.318 E8.45844
G1 X82.483 Y77.635 E8.48905
G1 X83.157 Y77.008 E8.51967
G1 X83.893 Y76.434 E8.55072
G1 X84.197 Y76.218 E8.56312
G1 X84.97 Y75.718 E8.59374
G1 X85.784 Y75.287 E8.62437
G1 X86.632 Y74.928 E8.655
G1 X87.507 Y74.644 E8.6856
G1 X88.396 Y74.438 E8.71595
G1 X88.761 Y74.37 E8.7283
G1 X89.672 Y74.241 E8.7589
G1 X90.541 Y74.192 E8.78785
G1 X91.162 Y74.184 E8.80851
G1 X128.661 Y74.184 E10.05573
G1 X129.611 Y74.2 E10.08733
G1 X130.53 Y74.257 E10.11795
G1 X131.44 Y74.393 E10.14856
G1 X132.282 Y74.59 E10.17732
G1 X133.164 Y74.855 E10.20795
G1 X134.019 Y75.195 E10.23855
G1 X134.842 Y75.609 E10.26919
G1 X135.9 Y76.285 E10.31095
G1 X136.188 Y76.494 E10.32279
G1 X136.909 Y77.067 E10.35342
G1 X137.577 Y77.7 E10.38403
G1 X138.188 Y78.388 E10.41463
G1 X138.737 Y79.127 E10.44525
G1 X139.103 Y79.706 E10.46803
G1 X139.312 Y80.062 E10.48177
G1 X139.743 Y80.876 E10.5124
G1 X140.102 Y81.724 E10.54303
G1 X140.386 Y82.599 E10.57362
G1 X140.583 Y83.426 E10.6019
G1 X140.738 Y84.333 E10.6325
G1 X140.82 Y85.448 E10.66969
G1 X140.841 Y86.593 E10.70778
G1 X140.84 Y102.193 E11.22664
G1 X140.83 Y102.916 E11.25069
G1 X140.815 Y103.343 E11.2649
G1 X140.698 Y105.5 E11.33675
G1 X140.624 Y108.088 E11.42286
G1 X140.622 Y110.6 E11.50641
G1 X140.693 Y113.12 E11.59026
G1 X140.775 Y114.547 E11.6378
G1 X140.825 Y115.736 E11.67738
G1 X140.841 Y116.831 E11.7138
G1 X140.84 Y132.392 E12.23136
G1 X140.831 Y133.119 E12.25554
G1 X140.78 Y134.038 E12.28616
G1 X140.649 Y134.95 E12.3168
G1 X140.439 Y135.846 E12.34741
G1 X140.153 Y136.721 E12.37803
G1 X139.792 Y137.568 E12.40865
G1 X139.358 Y138.38 E12.43927
G1 X138.856 Y139.152 E12.4699
G1 X138.288 Y139.877 E12.50054
G1 X137.66 Y140.55 E12.53115
G1 X136.976 Y141.166 E12.56177
G1 X136.241 Y141.72 E12.59238
G1 X135.461 Y142.209 E12.623
G1 X134.641 Y142.628 E12.65363
G1 X133.788 Y142.974 E12.68424
G1 X132.908 Y143.245 E12.71487
G1 X132.008 Y143.438 E12.74548
G1 X131.094 Y143.553 E12.77612
G1 X130.526 Y143.584 E12.79504
G1 X129.912 Y143.597 E12.81547
G1 X126.78 Y143.597 E12.91964
G1 X126.112 Y143.587 E12.94186
G1 X125.193 Y143.533 E12.97248
G1 X124.628 Y143.46 E12.99143
G1 X123.916 Y143.348 E13.0154
G1 X121.303 Y142.977 E13.10318
G1 X118.79 Y142.693 E13.18729
G1 X116.274 Y142.479 E13.27128
G1 X113.768 Y142.338 E13.35476
G1 X111.226 Y142.267 E13.43934
G1 X108.715 Y142.269 E13.52286
G1 X106.16 Y142.342 E13.60787
G1 X103.632 Y142.485 E13.69209
G1 X101.13 Y142.699 E13.77561
G1 X98.635 Y142.984 E13.85913
G1 X96.07 Y143.35 E13.94531
G1 X95.362 Y143.461 E13.96914
G1 X94.016 Y143.585 E14.0141
G1 X93.398 Y143.598 E14.03466
G1 X90.329 Y143.597 E14.13674
G1 X89.631 Y143.588 E14.15995
G1 X88.712 Y143.536 E14.19057
G1 X87.801 Y143.405 E14.22118
G1 X86.905 Y143.195 E14.25179
G1 X86.03 Y142.908 E14.28242
G1 X85.183 Y142.546 E14.31305
G1 X84.371 Y142.112 E14.34368
G1 X83.6 Y141.61 E14.37428
G1 X82.875 Y141.042 E14.40491
G1 X82.202 Y140.413 E14.43555
G1 X81.587 Y139.729 E14.46614
G1 X81.033 Y138.994 E14.49675
G1 X80.545 Y138.213 E14.52738
G1 X80.126 Y137.393 E14.55801
G1 X79.78 Y136.54 E14.58863
G1 X79.51 Y135.66 E14.61924
G1 X79.317 Y134.759 E14.64989
G1 X79.203 Y133.846 E14.68049
G1 X79.172 Y133.275 E14.69951
G1 X79.159 Y132.656 E14.7201
G1 X79.16 Y116.576 E15.25493
G1 X79.184 Y115.447 E15.29249
G1 X79.304 Y113.224 E15.36653
G1 X79.376 Y110.682 E15.45111
G1 X79.376 Y108.171 E15.53463
G1 X79.303 Y105.59 E15.62051
G1 X79.174 Y103.093 E15.70367
G1 X79.159 Y102.442 E15.72533
G1 X79.161 Y86.251 E16.26384
G0 F6000 X79.561 Y86.26
G1 F1200 X79.577 Y85.492 E16.28939
G1 X79.636 Y84.59 E16.31946
G1 X79.793 Y83.605 E16.35263
G1 X79.85 Y83.334 E16.36184
G1 X80.075 Y82.459 E16.39189
G1 X80.521 Y81.268 E16.43419
G1 X80.606 Y81.078 E16.44111
G1 X81.011 Y80.27 E16.47117
G1 X81.523 Y79.447 E16.50341
G1 X81.639 Y79.279 E16.5102
G1 X82.185 Y78.56 E16.54023
G1 X82.792 Y77.891 E16.57028
G1 X83.456 Y77.279 E16.60031
G1 X84.125 Y76.76 E16.62847
G1 X84.429 Y76.544 E16.64088
G1 X85.188 Y76.054 E16.67092
G1 X85.987 Y75.633 E16.70096
G1 X86.82 Y75.285 E16.73099
G1 X87.68 Y75.011 E16.76101
G1 X88.469 Y74.832 E16.78792
G1 X88.834 Y74.764 E16.80027
G1 X89.728 Y74.638 E16.83029
G1 X90.547 Y74.592 E16.85758
G1 X91.162 Y74.584 E16.87803
G1 X128.661 Y74.584 E18.12526
G1 X129.604 Y74.6 E18.15662
G1 X130.505 Y74.657 E18.18665
G1 X131.398 Y74.793 E18.2167
G1 X132.184 Y74.978 E18.24355
G1 X133.048 Y75.238 E18.27356
G1 X133.886 Y75.574 E18.30359
G1 X134.692 Y75.984 E18.33367
G1 X135.665 Y76.609 E18.37213
G1 X135.953 Y76.818 E18.38397
G1 X136.66 Y77.38 E18.41401
G1 X137.314 Y78.003 E18.44405
G1 X137.91 Y78.681 E18.47407
G1 X138.445 Y79.409 E18.50412
G1 X138.758 Y79.909 E18.52374
G1 X138.967 Y80.265 E18.53747
G1 X139.389 Y81.063 E18.5675
G1 X139.74 Y81.896 E18.59756
G1 X140.015 Y82.756 E18.62759
G1 X140.192 Y83.51 E18.65335
G1 X140.343 Y84.401 E18.68341
G1 X140.42 Y85.456 E18.71859
G1 X140.441 Y86.593 E18.75641
G1 X140.44 Y102.187 E19.27507
G1 X140.43 Y102.91 E19.29912
G1 X140.416 Y103.321 E19.3128
G1 X140.298 Y105.506 E19.38558
G1 X140.224 Y108.076 E19.47109
G1 X140.222 Y110.611 E19.55541
G1 X140.292 Y113.118 E19.63882
G1 X140.375 Y114.565 E19.68703
G1 X140.425 Y115.742 E19.72621
G1 X140.441 Y116.831 E19.76244
G1 X140.44 Y132.387 E20.27983
G1 X140.431 Y133.114 E20.30401
G1 X140.38 Y134.016 E20.33406
G1 X140.249 Y134.91 E20.36411
G1 X140.04 Y135.788 E20.39413
G1 X139.754 Y136.645 E20.42418
G1 X139.393 Y137.473 E20.45422
G1 X138.961 Y138.265 E20.48423
G1 X138.46 Y139.017 E20.51428
G1 X137.894 Y139.721 E20.54433
G1 X137.269 Y140.372 E20.57434
G1 X136.588 Y140.966 E20.6044
G1 X135.857 Y141.497 E20.63445
G1 X135.083 Y141.961 E20.66447
G1 X134.27 Y142.355 E20.69451
G1 X133.426 Y142.675 E20.72454
G1 X132.556 Y142.92 E20.7546
G1 X131.669 Y143.086 E20.78461
G1 X130.515 Y143.184 E20.82313
G1 X129.911 Y143.197 E20.84323
G1 X126.786 Y143.197 E20.94716
G1 X126.118 Y143.187 E20.96938
G1 X125.217 Y143.133 E20.9994
G1 X124.69 Y143.065 E21.01708
G1 X123.891 Y142.94 E21.04398
G1 X121.372 Y142.582 E21.1286
G1 X118.868 Y142.298 E21.21242
G1 X116.295 Y142.08 E21.2983
G1 X113.767 Y141.938 E21.38252
G1 X111.237 Y141.867 E21.4667
G1 X108.704 Y141.869 E21.55095
G1 X106.16 Y141.942 E21.63559
G1 X103.612 Y142.086 E21.72048
G1 X101.087 Y142.302 E21.80477
G1 X98.565 Y142.59 E21.88919
G1 X95.959 Y142.961 E21.97674
G1 X95.3 Y143.065 E21.99893
G1 X94.005 Y143.185 E22.04219
G1 X93.398 Y143.198 E22.06238
G1 X90.334 Y143.197 E22.16429
G1 X89.636 Y143.188 E22.18751
G1 X88.735 Y143.137 E22.21752
G1 X87.841 Y143.005 E22.24758
G1 X86.963 Y142.796 E22.2776
G1 X86.106 Y142.509 E22.30766
G1 X85.279 Y142.148 E22.33767
G1 X84.486 Y141.715 E22.36772
G1 X83.735 Y141.214 E22.39775
G1 X83.031 Y140.648 E22.42779
G1 X82.38 Y140.022 E22.45783
G1 X81.787 Y139.341 E22.48787
G1 X81.257 Y138.61 E22.5179
G1 X80.793 Y137.835 E22.54794
G1 X80.399 Y137.022 E22.57799
G1 X80.079 Y136.178 E22.60801
G1 X79.835 Y135.308 E22.63806
G1 X79.669 Y134.42 E22.66811
G1 X79.572 Y133.265 E22.70666
G1 X79.559 Y132.656 E22.72692
G1 X79.56 Y116.582 E23.26154
G1 X79.57 Y115.875 E23.28506
G1 X79.584 Y115.469 E23.29857
G1 X79.703 Y113.259 E23.37218
G1 X79.776 Y110.693 E23.45756
G1 X79.776 Y108.16 E23.54181
G1 X79.703 Y105.598 E23.62706
G1 X79.574 Y103.081 E23.71089
G1 X79.559 Y102.442 E23.73214
G1 X79.561 Y86.26 E24.27036
G1 F1500 E17.77036
;MESH:Foot_part_1.obj(1)
G0 F6000 X89.094 Y86.26
G0 X90.189 Y86.26
G0 X91.332 Y101.2
G0 X92.156 Y101.2
G0 X92.918 Y98.262
G1 F1500 E24.27036
G0 F6000 X93.528 Y98.262
;TYPE:WALL-OUTER
G1 F1200 X93.588 Y98.118 E24.27555
G1 X93.728 Y98.062 E24.28056
G1 X95.116 Y98.062 E24.32673
G1 X95.117 Y91.843 E24.53357
G1 X95.155 Y91.594 E24.54195
G1 X95.256 Y91.368 E24.55018
G1 X95.474 Y91.131 E24.56089
G1 X95.792 Y90.959 E24.57292
G1 X96.04 Y90.919 E24.58127
G1 X96.369 Y90.944 E24.59225
G1 X96.607 Y91.033 E24.6007
G1 X96.947 Y91.352 E24.61621
G1 X97.093 Y91.789 E24.63153
G1 X97.1 Y91.841 E24.63328
G1 X97.103 Y98.062 E24.84019
G1 X122.896 Y98.062 E25.69807
G1 X122.897 Y91.843 E25.90491
G1 X122.935 Y91.594 E25.91329
G1 X123.053 Y91.349 E25.92233
G1 X123.327 Y91.076 E25.9352
G1 X123.572 Y90.959 E25.94423
G1 X123.82 Y90.919 E25.95258
G1 X124.15 Y90.944 E25.96359
G1 X124.388 Y91.033 E25.97204
G1 X124.727 Y91.353 E25.98755
G1 X124.874 Y91.788 E26.00282
G1 X124.881 Y91.841 E26.0046
G1 X124.884 Y98.061 E26.21147
G1 X126.271 Y98.061 E26.25761
G1 X126.412 Y98.117 E26.26265
G1 X126.473 Y98.261 E26.26785
G1 X126.473 Y102.571 E26.41121
G1 X130.041 Y102.571 E26.52988
G1 X130.041 Y85.889 E27.08472
G1 X130.006 Y85.616 E27.09388
G1 X129.916 Y85.363 E27.10281
G1 X129.831 Y85.214 E27.10851
G1 X129.616 Y85.047 E27.11757
G1 X129.344 Y84.984 E27.12686
G1 X90.658 Y84.984 E28.41356
G1 X90.388 Y85.046 E28.42277
G1 X90.171 Y85.212 E28.43186
G1 X90.017 Y85.476 E28.44202
G1 X89.959 Y85.811 E28.45333
G1 X89.96 Y102.572 E29.0108
G1 X93.528 Y102.572 E29.12948
G1 X93.528 Y98.262 E29.27283
G0 F6000 X92.918 Y98.262
G0 X92.156 Y101.2
G0 X90.539 Y101.992
G0 X90.36 Y102.172
;TYPE:WALL-INNER
G1 F1200 X93.128 Y102.172 E29.36489
G1 X93.128 Y98.262 E29.49494
G1 X93.178 Y98.019 E29.50319
G1 X93.309 Y97.832 E29.51078
G1 X93.47 Y97.719 E29.51733
G1 X93.728 Y97.662 E29.52611
G1 X94.716 Y97.662 E29.55898
G1 X94.716 Y91.869 E29.75165
G1 X94.745 Y91.595 E29.76082
G1 X94.859 Y91.262 E29.77252
G1 X95.059 Y90.97 E29.78429
G1 X95.323 Y90.742 E29.7959
G1 X95.64 Y90.589 E29.8076
G1 X95.988 Y90.523 E29.81938
G1 X96.405 Y90.546 E29.83327
G1 X96.759 Y90.663 E29.84568
G1 X96.956 Y90.794 E29.85354
G1 X97.231 Y91.07 E29.8665
G1 X97.384 Y91.335 E29.87668
G1 X97.479 Y91.684 E29.88871
G1 X97.5 Y91.841 E29.89398
G1 X97.503 Y97.662 E30.08759
G1 X122.496 Y97.662 E30.91886
G1 X122.496 Y91.838 E31.11256
G1 X122.539 Y91.521 E31.1232
G1 X122.64 Y91.262 E31.13245
G1 X122.771 Y91.065 E31.14032
G1 X123.045 Y90.792 E31.15318
G1 X123.24 Y90.663 E31.16096
G1 X123.545 Y90.552 E31.17175
G1 X123.847 Y90.518 E31.18186
G1 X124.186 Y90.546 E31.19318
G1 X124.54 Y90.663 E31.20558
G1 X124.737 Y90.795 E31.21346
G1 X125.011 Y91.071 E31.2264
G1 X125.164 Y91.334 E31.23652
G1 X125.26 Y91.682 E31.24853
G1 X125.281 Y91.841 E31.25386
G1 X125.284 Y97.661 E31.44743
G1 X126.271 Y97.661 E31.48026
G1 X126.529 Y97.718 E31.48905
G1 X126.691 Y97.831 E31.49562
G1 X126.822 Y98.018 E31.50321
G1 X126.873 Y98.261 E31.51147
G1 X126.873 Y102.171 E31.64152
G1 X129.641 Y102.171 E31.73358
G1 X129.641 Y85.889 E32.27512
G1 X129.601 Y85.616 E32.2843
G1 X129.44 Y85.417 E32.29282
G1 X129.136 Y85.384 E32.30299
G1 X90.703 Y85.384 E33.58127
G1 X90.518 Y85.45 E33.58781
G1 X90.399 Y85.615 E33.59457
